X:1
T:Weissinger, 56.65
T:Hubert Platt Main, 1864
T:Weissinger, 56.65
T:Public Domain
C:Hubert Platt Main, 1864
Z:Public Domain
%%score ( 1 2 ) ( 3 4 )
L:1/8
M:6/8
K:G
V:1 treble 
V:2 treble 
V:3 bass 
V:4 bass 
V:1
 [DG]3 (BA)G | [Fd]3 [FA]3 | [GB]3 (BA)G | [FA]2 [GB] [FA]3 | [DB]3 ([Ec][DB])[^DA] | %5
 [EG]2 [CE] [CE]3 | [B,D]3 ([DG][CA])[B,B] | [CA]3 [B,G]3 |] %8
V:2
 x3 G2 G | x6 | x3 G2 G | x6 | x6 | x6 | x6 | x6 |] %8
V:3
 [G,B,]3 (DC)[G,B,] | [D,A,]3 [D,D]3 | [G,D]3 [E,^C]2 [E,C] | [D,D]2 [D,D] [D,D]3 | %4
 G,3 G,2 [B,,F,] | [C,E,]2 [C,G,] [C,G,]3 | [D,G,]3 (B,A,)[D,G,] | [D,F,]3 [G,,G,]3 |] %8
V:4
 x3 G,2 x | x6 | x6 | x6 | G,3 G,2 x | x6 | x3 D,2 x | x6 |] %8

